tipitek/img/app-card-icon-2.svg

<svg width="56" height="56" viewBox="0 0 56 56" fill="none" xmlns="http://www.w3.org/2000/svg">
<path d="M50.2724 33.8159C51.0816 31.4597 51.5223 28.9321 51.5223 26.3012C51.5223 15.3323 43.8867 6.1468 33.6406 3.77008" stroke="black" stroke-width="1.64062" stroke-linecap="round" stroke-linejoin="round" stroke-dasharray="1.31 3.28"/>
<path d="M5.33594 28.1307C6.26858 40.0492 16.2349 49.4302 28.393 49.4302M28.393 3.17242C22.2169 3.17242 16.6065 5.59344 12.4582 9.53783" stroke="black" stroke-width="1.64062" stroke-miterlimit="10" stroke-linecap="round" stroke-linejoin="round"/>
<path d="M34.7716 42.5699C34.7716 36.974 39.3241 32.4215 44.92 32.4215C45.3402 32.4215 45.7543 32.4477 46.1613 32.4975C46.8378 30.5571 47.2067 28.4724 47.2067 26.3013C47.2067 15.9092 38.7822 7.48456 28.3899 7.48456C23.0827 7.48456 18.2896 9.68256 14.8687 13.2169L21.4623 24.6375C21.8702 25.3439 21.8702 26.1871 21.4623 26.8934C21.0546 27.5997 20.3242 28.0214 19.5087 28.0214H9.65234C10.5212 37.6072 18.5778 45.118 28.39 45.118C30.6668 45.118 32.849 44.7135 34.8691 43.9727C34.8043 43.5079 34.7717 43.0392 34.7716 42.5699Z" fill="#FE646F"/>
<path d="M46.2007 32.3914C46.8537 30.4812 47.2088 28.4328 47.2088 26.3013C47.2088 21.933 45.7199 17.9126 43.2223 14.7192M40.5697 11.9578C37.2876 9.1685 33.0367 7.48456 28.392 7.48456C23.1257 7.48456 18.3656 9.64898 14.9502 13.1355L21.5591 24.5827C22.4696 26.1596 21.3315 28.1307 19.5107 28.1307H9.66406C10.584 37.6643 18.6171 45.118 28.392 45.118C30.6293 45.118 32.7749 44.7266 34.7654 44.0101" stroke="black" stroke-width="1.64062" stroke-miterlimit="10" stroke-linecap="round" stroke-linejoin="round"/>
<path d="M44.9218 32.3122C43.8707 32.3113 42.8257 32.4721 41.8235 32.789C40.3927 35.7395 38.0175 38.15 35.0935 39.6265C34.8081 40.5816 34.6634 41.5731 34.6641 42.5699C34.6641 48.2351 39.2566 52.8277 44.9218 52.8277C50.587 52.8277 55.1795 48.2351 55.1795 42.5699C55.1795 36.9047 50.587 32.3122 44.9218 32.3122Z" fill="#05E39C"/>
<path d="M44.922 32.3122C44.1337 32.3122 43.3662 32.4013 42.6289 32.5698C47.1902 33.6114 50.5936 37.6931 50.5936 42.5699C50.5936 47.4467 47.1902 51.5285 42.6289 52.5701C43.3812 52.7416 44.1504 52.828 44.922 52.8277C50.5871 52.8277 55.1797 48.2351 55.1797 42.5699C55.1797 36.9047 50.5871 32.3122 44.922 32.3122Z" fill="#0ED290"/>
<path d="M39.219 51.0971C40.8498 52.1898 42.8112 52.8276 44.9218 52.8276C50.587 52.8276 55.1795 48.2351 55.1795 42.5699C55.1795 36.9047 50.587 32.3121 44.9218 32.3121C43.9225 32.3115 42.9284 32.4568 41.9711 32.7436C40.5211 35.7945 38.0733 38.2788 35.0494 39.7757C34.793 40.6849 34.6633 41.6251 34.6641 42.5698C34.6641 44.741 35.3392 46.7541 36.4902 48.412" stroke="black" stroke-width="1.64062" stroke-miterlimit="10" stroke-linecap="round" stroke-linejoin="round"/>
<path d="M40.1328 41.5576L44.1819 45.9442L50.1881 38.9932" stroke="black" stroke-width="1.64062" stroke-miterlimit="10" stroke-linecap="round" stroke-linejoin="round"/>
<path d="M28.3896 11.2741C23.7577 11.2741 19.6159 13.3704 16.8593 16.6652L21.462 24.6374C21.8699 25.3438 21.8699 26.1871 21.462 26.8933C21.0543 27.5996 20.3239 28.0213 19.5084 28.0213H13.4609C14.3145 35.5104 20.672 41.3285 28.3896 41.3285C36.6889 41.3285 43.4169 34.6006 43.4169 26.3012C43.4169 18.0019 36.6889 11.2741 28.3896 11.2741Z" fill="white"/>
<path d="M30.2227 26.3013H35.3189" stroke="black" stroke-width="1.64062" stroke-miterlimit="10" stroke-linecap="round" stroke-linejoin="round"/>
<path d="M28.3932 11.2741C27.6127 11.2741 26.8461 11.3337 26.0977 11.4485C33.3073 12.5536 38.8293 18.7826 38.8293 26.3014C38.8293 33.8201 33.3073 40.0491 26.0977 41.1543C26.8573 41.2705 27.6247 41.3288 28.3932 41.3286C36.6925 41.3286 43.4205 34.6007 43.4205 26.3014C43.4205 18.002 36.6925 11.2741 28.3932 11.2741Z" fill="#F3F0F3"/>
<path d="M28.3928 14.2142V14.8676M28.3928 37.735V38.3884M39.8265 26.3013H40.4799M22.3493 15.8336L22.6759 16.3994M34.1097 36.2032L34.4363 36.769M17.9251 32.3448L18.4909 32.0181M38.2947 20.5844L38.8605 20.2577M38.2947 32.0181L38.8605 32.3448M22.3493 36.769L22.6759 36.2032M34.1097 16.3994L34.4363 15.8336M28.3928 11.274C23.8027 11.274 19.694 13.3327 16.9375 16.5764L21.5599 24.5827C22.4704 26.1595 21.3323 28.1307 19.5114 28.1307H13.4766C14.3792 35.567 20.7128 41.3285 28.3927 41.3285C36.692 41.3285 43.4199 34.6007 43.4199 26.3013C43.4199 18.0019 36.6921 11.274 28.3928 11.274Z" stroke="black" stroke-width="1.64062" stroke-miterlimit="10" stroke-linecap="round" stroke-linejoin="round"/>
<path d="M28.3919 28.1307C29.4023 28.1307 30.2213 27.3116 30.2213 26.3013C30.2213 25.2909 29.4023 24.4719 28.3919 24.4719C27.3816 24.4719 26.5625 25.2909 26.5625 26.3013C26.5625 27.3116 27.3816 28.1307 28.3919 28.1307Z" fill="#FE646F"/>
<path d="M28.3919 28.1307C29.4023 28.1307 30.2213 27.3116 30.2213 26.3013C30.2213 25.2909 29.4023 24.4719 28.3919 24.4719C27.3816 24.4719 26.5625 25.2909 26.5625 26.3013C26.5625 27.3116 27.3816 28.1307 28.3919 28.1307Z" stroke="black" stroke-width="1.64062" stroke-miterlimit="10" stroke-linecap="round" stroke-linejoin="round"/>
<path d="M9.30154 10.4477L1.14074 24.5827C0.230305 26.1595 1.36835 28.1307 3.18923 28.1307H19.5108C21.3317 28.1307 22.4696 26.1595 21.5593 24.5827L13.3984 10.4477C12.488 8.87086 10.2119 8.87086 9.30154 10.4477Z" fill="#FFD15B"/>
<path d="M21.5568 24.5827L13.396 10.4477C12.4856 8.87086 10.2096 8.87086 9.29917 10.4477L9.07812 10.8306L17.0179 24.5826C17.9283 26.1594 16.7903 28.1306 14.9694 28.1306H19.5085C21.3292 28.1307 22.4672 26.1595 21.5568 24.5827Z" fill="#FFC344"/>
<path d="M4.27817 19.1485L1.14074 24.5827C0.230307 26.1595 1.36835 28.1307 3.18912 28.1307H19.5107C21.3316 28.1307 22.4695 26.1597 21.5592 24.5827L13.3984 10.4477C12.488 8.87086 10.212 8.87086 9.30154 10.4477L6.19223 15.8331" stroke="black" stroke-width="1.64062" stroke-miterlimit="10" stroke-linecap="round" stroke-linejoin="round"/>
<path d="M11.3516 14.0961V20.2927V14.0961ZM11.3516 23.5285V24.2836V23.5285Z" fill="black"/>
<path d="M11.3516 14.0961V20.2927M11.3516 23.5285V24.2836" stroke="black" stroke-width="1.64062" stroke-miterlimit="10" stroke-linecap="round" stroke-linejoin="round"/>
<path d="M28.3906 17.6769V24.4719" stroke="black" stroke-width="1.64062" stroke-miterlimit="10" stroke-linecap="round" stroke-linejoin="round"/>
</svg>

<svg width="56" height="56" fill="none" xmlns="http://www.w3.org/2000/svg"><path d="M50.272 33.816a23.093 23.093 0 0 0 1.25-7.515c0-10.969-7.635-20.154-17.881-22.53" stroke="#000" stroke-width="1.641" stroke-linecap="round" stroke-linejoin="round" stroke-dasharray="1.31 3.28"/><path d="M5.336 28.13c.933 11.92 10.899 21.3 23.057 21.3m0-46.258a23.05 23.05 0 0 0-15.935 6.366" stroke="#000" stroke-width="1.641" stroke-miterlimit="10" stroke-linecap="round" stroke-linejoin="round"/><path d="M34.772 42.57c0-5.596 4.552-10.148 10.148-10.148.42 0 .834.026 1.241.076a18.786 18.786 0 0 0 1.046-6.197c0-10.392-8.425-18.816-18.817-18.816a18.76 18.76 0 0 0-13.521 5.732l6.593 11.42c.408.707.408 1.55 0 2.256a2.233 2.233 0 0 1-1.953 1.128H9.652c.87 9.586 8.926 17.097 18.738 17.097a18.78 18.78 0 0 0 6.48-1.145 10.175 10.175 0 0 1-.098-1.403z" fill="#FE646F"/><path d="M46.2 32.391a18.793 18.793 0 0 0 1.009-6.09c0-4.368-1.49-8.388-3.987-11.582m-2.652-2.761a18.74 18.74 0 0 0-12.178-4.473 18.759 18.759 0 0 0-13.442 5.65l6.61 11.448c.91 1.577-.229 3.548-2.05 3.548H9.665c.92 9.533 8.953 16.987 18.728 16.987a18.78 18.78 0 0 0 6.373-1.108" stroke="#000" stroke-width="1.641" stroke-miterlimit="10" stroke-linecap="round" stroke-linejoin="round"/><path d="M44.922 32.312c-1.051 0-2.096.16-3.098.477a15.016 15.016 0 0 1-6.73 6.837c-.286.956-.43 1.947-.43 2.944 0 5.665 4.593 10.258 10.258 10.258 5.665 0 10.258-4.593 10.258-10.258 0-5.665-4.593-10.258-10.258-10.258z" fill="#05E39C"/><path d="M44.922 32.312c-.788 0-1.556.09-2.293.258 4.561 1.041 7.965 5.123 7.965 10s-3.404 8.959-7.965 10c.752.172 1.521.258 2.293.258 5.665 0 10.258-4.593 10.258-10.258 0-5.665-4.593-10.258-10.258-10.258z" fill="#0ED290"/><path d="M39.219 51.097a10.21 10.21 0 0 0 5.703 1.73c5.665 0 10.258-4.592 10.258-10.257s-4.593-10.258-10.258-10.258c-1 0-1.994.145-2.95.432a15.088 15.088 0 0 1-6.923 7.032c-.256.909-.386 1.85-.385 2.794 0 2.171.675 4.184 1.826 5.842" stroke="#000" stroke-width="1.641" stroke-miterlimit="10" stroke-linecap="round" stroke-linejoin="round"/><path d="M40.133 41.558l4.049 4.386 6.006-6.95" stroke="#000" stroke-width="1.641" stroke-miterlimit="10" stroke-linecap="round" stroke-linejoin="round"/><path d="M28.39 11.274a14.995 14.995 0 0 0-11.53 5.391l4.602 7.972c.408.707.408 1.55 0 2.256a2.233 2.233 0 0 1-1.954 1.128h-6.047c.854 7.49 7.211 13.307 14.929 13.307 8.299 0 15.027-6.727 15.027-15.027 0-8.3-6.728-15.027-15.027-15.027z" fill="#fff"/><path d="M30.223 26.301h5.096" stroke="#000" stroke-width="1.641" stroke-miterlimit="10" stroke-linecap="round" stroke-linejoin="round"/><path d="M28.393 11.274c-.78 0-1.547.06-2.295.175 7.21 1.105 12.731 7.334 12.731 14.852 0 7.52-5.522 13.748-12.731 14.853.76.116 1.527.175 2.295.175 8.3 0 15.027-6.728 15.027-15.028 0-8.299-6.727-15.027-15.027-15.027z" fill="#F3F0F3"/><path d="M28.393 14.214v.654m0 22.867v.653m11.434-12.087h.653M22.35 15.834l.326.565M34.11 36.203l.326.566m-16.51-4.424l.565-.327m19.804-11.434l.566-.326m-.566 11.76l.566.327m-16.512 4.424l.327-.566M34.11 16.4l.326-.565m-6.043-4.56c-4.59 0-8.699 2.059-11.456 5.302l4.623 8.007c.91 1.577-.228 3.548-2.049 3.548h-6.034c.902 7.436 7.236 13.197 14.916 13.197 8.299 0 15.027-6.727 15.027-15.027 0-8.3-6.728-15.027-15.027-15.027z" stroke="#000" stroke-width="1.641" stroke-miterlimit="10" stroke-linecap="round" stroke-linejoin="round"/><path d="M28.392 28.13a1.83 1.83 0 1 0 0-3.658 1.83 1.83 0 0 0 0 3.659z" fill="#FE646F"/><path d="M28.392 28.13a1.83 1.83 0 1 0 0-3.658 1.83 1.83 0 0 0 0 3.659z" stroke="#000" stroke-width="1.641" stroke-miterlimit="10" stroke-linecap="round" stroke-linejoin="round"/><path d="M9.302 10.448L1.14 24.583c-.91 1.577.227 3.548 2.048 3.548h16.322c1.82 0 2.959-1.971 2.048-3.548L13.4 10.448c-.911-1.577-3.187-1.577-4.097 0z" fill="#FFD15B"/><path d="M21.557 24.583l-8.161-14.135c-.91-1.577-3.186-1.577-4.097 0l-.22.383 7.939 13.752c.91 1.576-.228 3.548-2.049 3.548h4.54c1.82 0 2.958-1.971 2.048-3.548z" fill="#FFC344"/><path d="M4.278 19.148l-3.137 5.435c-.91 1.577.227 3.548 2.048 3.548h16.322c1.82 0 2.959-1.971 2.048-3.548L13.4 10.448c-.911-1.577-3.187-1.577-4.097 0l-3.11 5.385" stroke="#000" stroke-width="1.641" stroke-miterlimit="10" stroke-linecap="round" stroke-linejoin="round"/><path d="M11.352 14.096v6.197-6.197zm0 9.433v.755-.755z" fill="#000"/><path d="M11.352 14.096v6.197m0 3.236v.755M28.39 17.677v6.795" stroke="#000" stroke-width="1.641" stroke-miterlimit="10" stroke-linecap="round" stroke-linejoin="round"/></svg>
